icons/laravelspark-dark.svg

<svg width="256" height="256" viewBox="0 0 256 256" fill="none" xmlns="http://www.w3.org/2000/svg">
<rect width="256" height="256" rx="60" fill="#282828" />
<path d="M145.559 52.8578C146.048 51.3876 146.18 49.8226 145.944 48.2916C145.708 46.7606 145.111 45.3075 144.202 44.0519C143.294 42.7963 142.099 41.7741 140.717 41.0697C139.335 40.3652 137.805 39.9986 136.253 40H118.131C116.071 39.9981 114.063 40.6443 112.393 41.8467C110.722 43.0491 109.474 44.7466 108.825 46.6978L76.4987 144.476C76.0099 145.946 75.8779 147.511 76.1138 149.042C76.3497 150.573 76.9466 152.026 77.8553 153.281C78.7641 154.537 79.9587 155.559 81.3408 156.264C82.7229 156.968 84.2528 157.335 85.8047 157.333H103.927C105.987 157.335 107.994 156.689 109.665 155.487C111.336 154.284 112.584 152.587 113.233 150.636L145.559 52.8578ZM179.501 111.524C179.99 110.054 180.122 108.489 179.886 106.958C179.65 105.427 179.053 103.974 178.145 102.719C177.236 101.463 176.041 100.441 174.659 99.7363C173.277 99.0319 171.747 98.6653 170.195 98.6667H152.073C150.013 98.6648 148.006 99.311 146.335 100.513C144.664 101.716 143.416 103.413 142.767 105.364L110.441 203.142C109.952 204.612 109.82 206.177 110.056 207.708C110.292 209.239 110.889 210.693 111.798 211.948C112.706 213.204 113.901 214.226 115.283 214.93C116.665 215.635 118.195 216.001 119.747 216H137.869C139.929 216.002 141.937 215.356 143.607 214.153C145.278 212.951 146.526 211.253 147.175 209.302L179.501 111.524Z" fill="url(#paint0_radial_4_265)"/>
<defs>
<radialGradient id="paint0_radial_4_265" cx="0" cy="0" r="1" gradientUnits="userSpaceOnUse" gradientTransform="translate(159.175 137.778) rotate(75.9645) scale(100.787 54.3803)">
<stop stop-color="#754BEC"/>
<stop offset="1" stop-color="#49DEFF"/>
</radialGradient>
</defs>
</svg>

<svg xmlns="http://www.w3.org/2000/svg" width="256" height="256" fill="none"><rect width="256" height="256" fill="#282828" rx="60"/><path fill="url(#paint0_radial_4_265)" d="M145.559 52.858a9.76 9.76 0 0 0-1.357-8.806A9.81 9.81 0 0 0 136.253 40h-18.122a9.8 9.8 0 0 0-5.738 1.847 9.78 9.78 0 0 0-3.568 4.85l-32.326 97.779a9.76 9.76 0 0 0 1.356 8.805 9.8 9.8 0 0 0 7.95 4.052h18.122a9.8 9.8 0 0 0 5.738-1.846 9.8 9.8 0 0 0 3.568-4.851zm33.942 58.666a9.76 9.76 0 0 0-1.356-8.805 9.8 9.8 0 0 0-7.95-4.052h-18.122a9.8 9.8 0 0 0-5.738 1.846 9.8 9.8 0 0 0-3.568 4.851l-32.326 97.778a9.76 9.76 0 0 0 1.357 8.806 9.81 9.81 0 0 0 7.949 4.052h18.122a9.8 9.8 0 0 0 9.306-6.698z"/><defs><radialGradient id="paint0_radial_4_265" cx="0" cy="0" r="1" gradientTransform="matrix(24.44317 97.77807 -52.75681 13.18848 159.175 137.778)" gradientUnits="userSpaceOnUse"><stop stop-color="#754BEC"/><stop offset="1" stop-color="#49DEFF"/></radialGradient></defs></svg>
